X: 323
T: LADY MARY HAY
C: C. STEWART
R: Reel
B: Glen Collection p.32 #3
Z: 2011 John Chambers <jc:trillian.mit.edu>
M: C|
L: 1/8
V: 1 clef=treble middle=B
V: 2 clef=bass middle=d
%%score {1 | 2}
K: Cm
%
V: 1
a |\
Tg2(eg) (cg)(eg) | f2(df) (bf)(dB) | g2(eg) (cg)(eg) | (fb)(df) gcc :|
c |\
GcEc gcec | .B(b=ab) fbdB | GcEc (gc)(ec) | (fb)(df) gcce |
GcEc gcec | .B(b=ab) fbdB | (ce)(Gc) (EG)(Cg) | (fb)(df) (gc)c |]
%
V: 2
z |\
c2[c'2g2] [c'2e2][c'2g2] | d2[b2f2] B2[b2f2] |\
c2[c'2g2] [c'2e2][c'2g2] | B2[b2f2] c2[gec] :|
z |\
e2[c'2g2] c2[c'2g2] | b2[f'2b2] [d'2b2]b2 |\
e2[c'2g2] c2[c'2g2] | B2[b2f2] c2[g2e2c2] |
e2[c'2g2] c2[c'2g2] | b2[f'2b2] [d'2b2]b2 |\
e2[c'2g2] c2[c'2g2] | B2[b2f2] c2[gec] |]

